X:1
T:Title
%%score { ( 1 3 ) | ( 2 4 ) }
L:1/8
M:4/4
K:Bb
V:1 treble nm="Grand Piano"
V:3 treble 
V:2 bass 
V:4 bass 
V:1
 z4 z2[Q:1/4=100] [B,D]2 | [DF]2 [EG]>[DF] [DF]2 [DB]>[Ec] | [Fd]4 z4 | F2 A>B c2 d>c | B6 z2 | %5
 [B,EG]2 [EG]>[FA] [GB]2 [FA]>[EG] | [DF]2 [FB]2 F2 AG | F2 F>F F2 G>A |[M:2/4] [B,DB]4 | F2 E2 | %10
[M:4/4] D2 D2 D2 D2 | [DF]2 [EG]>[DF] [DF]2 [DB]>[Ec] | [Fd]4 z4 | F2 A>B c2 d>c | B6 z2 | %15
 [B,EG]2 [EG]>[FA] [GB]2 [FA]>[EG] | [DF]2 [FB]2 F2 AG | F2 F>F F2 G>A |[M:3/4] [DB]6 |] %19
V:2
 z4 z2 [B,,F,]2 | [B,,F,]2 [B,,B,]2 [B,,B,]2 [B,,F,B,]2 | [B,,B,]2 B,,2 [F,A,E]2 [F,A,E]2 | %3
 [F,A,E]2 [F,CE]>[F,B,E] [F,A,E]2 F>E | B,,2 E,2 B,,2 z A | E,2 [E,B,]2 [E,B,]2 [E,B,]2 | %6
 B,2- [D,B,]2 [F,B,D]2 .[=E,B,_D]2 | [F,B,D]2 [F,B,D]>[F,B,D] [F,A,E]2 [F,B,E]>[F,CE] | %8
[M:2/4] B,,4 | D2 C2 |[M:4/4] [B,,F,B,]2 [B,,F,B,]2 [B,,F,B,]2 [B,,F,B,]2 | %11
 [B,,F,]2 [B,,B,]2 [B,,B,]2 [B,,F,B,]2 | [B,,B,]2 B,,2 [F,A,E]2 [F,A,E]2 | %13
 [F,A,E]2 [F,CE]>[F,B,E] [F,A,E]2 F>E | B,,2 E,2 B,,2 z A | E,2 [E,B,]2 [E,B,]2 [E,B,]2 | %16
 B,2- [D,B,]2 [F,B,D]2 .[=E,B,_D]2 | [F,B,D]2 [F,B,D]>[F,B,D] [F,A,E]2 [F,B,E]>[F,CE] | %18
[M:3/4] [B,,B,]6 |] %19
V:3
 x8 | x8 | z2 B,2 c2 c2 | x8 | [B,DF]2 [B,EG]2 [B,DF]2 .[B,FB]2 | x8 | x8 | x8 |[M:2/4] x4 | x4 | %10
[M:4/4] x8 | x8 | z2 B,2 c2 c2 | x8 | [B,DF]2 [B,EG]2 [B,DF]2 .[B,FB]2 | x8 | x8 | x8 | %18
[M:3/4] x6 |] %19
V:4
 x8 | x8 | x8 | z4 z2 [F,A,]2 | z4 z2 D,2 | x8 | B,,2 z2 z4 | x8 |[M:2/4] x4 | x4 |[M:4/4] x8 | %11
 x8 | x8 | z4 z2 [F,A,]2 | z4 z2 D,2 | x8 | B,,2 z2 z4 | x8 |[M:3/4] x6 |] %19

